X:225
T: Jimmy Doyle's #1
S: "Johnny O'Leary of Sliabh Luachra" (#51)
Z: B.Black
L: 1/8
M: 2/4
Q: 290
R: polka
K: G
Bd dg/e/|dB BA/B/|d>B AB|d/e/d/B/ G2|
Bd dg/e/|dB BA/B/|dG BA|AG G2 :|
Bd g2|fe e/f/e/^d/|ed dB/d/|ed Bd|
dB/d/ gf/g/|fg/f/ e/f/g/e/|dB BA|BG G2 :|
